X: 1
T: Drummer, The
M: 4/4
L: 1/8
R: reel
K: Cmaj
|:ABcA E2 E^F|GABc dBGB|ABcA E2 Ec|edcB A2 A2:|
|c2 ce d2 de|c2 ce dBGB|c2 ce d2 df|edcB A3 B|
c2 ce d2 de|c2 ce dBGB|(3ccc ce (3ddd df|edcB A2 A2|
